src/assets/scroll.svg

<svg width="550" height="550" viewBox="0 0 550 550" fill="none" xmlns="http://www.w3.org/2000/svg">
<g clip-path="url(#clip0)">
<path d="M471.871 77.508H498.527C509.352 77.508 518.128 68.7325 518.128 57.9077V43.1885C518.128 32.3637 509.352 23.5882 498.527 23.5882H471.871V77.508Z" fill="#FEE45A"/>
<path d="M450.446 166.231V257.239C450.446 259.88 449.405 262.413 447.537 264.281L439.25 272.557C436.609 275.198 436.609 279.492 439.25 282.133L447.494 290.377C448.396 291.278 448.9 292.502 448.9 293.78V361.976L443.276 376.983C442.739 378.433 442.46 379.968 442.46 381.513L443.125 510.199H106.221V377.123L113.971 369.373C115.957 367.387 115.957 364.155 113.971 362.17L107.079 355.267C105.523 353.721 104.653 351.618 104.653 349.417V326.348C104.653 324.513 105.383 322.752 106.682 321.453L121.7 306.436C124.577 303.559 126.187 299.662 126.187 295.594V265.226C126.187 261.157 124.577 257.261 121.7 254.384L111.319 244.003C109.806 242.49 108.958 240.439 108.958 238.303V183.299L116.236 176.032C119.134 173.123 119.134 168.421 116.236 165.512L111.706 160.982V42.4724H440.871L440.485 152.148L447.537 159.2C449.405 161.057 450.446 163.591 450.446 166.231V166.231Z" fill="#FEF1DA"/>
<path d="M442.783 444.097H211.853C190.394 444.097 172.997 426.701 172.997 405.241V144.759C172.997 123.299 190.394 105.903 211.853 105.903H440.647L440.87 42.4724H172.997H111.705V160.982L116.235 165.512C119.133 168.421 119.133 173.123 116.235 176.032L108.957 183.299V238.302C108.957 240.441 109.806 242.492 111.319 244.003L121.699 254.384C124.571 257.256 126.186 261.154 126.186 265.217V295.594C126.186 299.662 124.569 303.565 121.692 306.442L106.681 321.453C105.382 322.752 104.652 324.514 104.652 326.352V349.417C104.652 351.618 105.522 353.721 107.078 355.267L113.97 362.17C115.956 364.155 115.956 367.387 113.97 369.373L106.22 377.123V510.199H172.997H443.124L442.783 444.097Z" fill="#FAE2C0"/>
<path d="M77.3643 16.6633H473.178V84.4339H77.3643V16.6633Z" fill="#FEF1DA"/>
<path d="M462.83 92.8401H470.082C477.592 92.8401 483.68 86.7526 483.68 79.2427V21.8556C483.68 14.3457 477.592 8.25812 470.082 8.25812H462.83C455.32 8.25812 449.232 14.3457 449.232 21.8556V79.2416C449.231 86.7515 455.32 92.8401 462.83 92.8401Z" fill="#C68D7A"/>
<path d="M78.1284 77.508H51.4723C40.6476 77.508 31.8721 68.7325 31.8721 57.9077V43.1885C31.8721 32.3637 40.6476 23.5882 51.4723 23.5882H78.1284V77.508Z" fill="#FEE45A"/>
<path d="M87.1711 92.8401H79.9188C72.4089 92.8401 66.3213 86.7526 66.3213 79.2427V21.8556C66.3213 14.3457 72.4089 8.25812 79.9188 8.25812H87.1711C94.681 8.25812 100.769 14.3457 100.769 21.8556V79.2416C100.769 86.7515 94.6799 92.8401 87.1711 92.8401Z" fill="#C68D7A"/>
<path d="M71.9873 465.566H476.166V532.768H71.9873V465.566Z" fill="#FEF1DA"/>
<path d="M475.092 526.412H498.528C509.352 526.412 518.128 517.636 518.128 506.812V492.091C518.128 481.266 509.352 472.491 498.528 472.491H475.092V526.412Z" fill="#FEE45A"/>
<path d="M462.83 541.743H470.082C477.592 541.743 483.68 535.655 483.68 528.146V470.76C483.68 463.25 477.592 457.162 470.082 457.162H462.83C455.32 457.162 449.232 463.25 449.232 470.76V528.146C449.231 535.654 455.32 541.743 462.83 541.743Z" fill="#C68D7A"/>
<path d="M78.1284 526.412H51.4723C40.6476 526.412 31.8721 517.636 31.8721 506.812V492.091C31.8721 481.266 40.6476 472.491 51.4723 472.491H78.1284V526.412Z" fill="#FEE45A"/>
<path d="M87.1711 541.743H79.9188C72.4089 541.743 66.3213 535.655 66.3213 528.146V470.76C66.3213 463.25 72.4089 457.162 79.9188 457.162H87.1711C94.681 457.162 100.769 463.25 100.769 470.76V528.146C100.769 535.654 94.6799 541.743 87.1711 541.743Z" fill="#C68D7A"/>
<path d="M540.876 491.401H526.161C525.791 476.473 513.542 464.441 498.528 464.441H490.785C488.074 455.578 479.822 449.11 470.082 449.11H462.83C458.253 449.11 454.009 450.548 450.508 452.981V381.51C450.508 380.927 450.611 380.357 450.815 379.813L456.443 364.802C456.781 363.898 456.956 362.942 456.956 361.975V293.775C456.956 290.343 455.619 287.115 453.191 284.688L445.85 277.346L453.227 269.969C456.626 266.569 458.498 262.048 458.498 257.24V220.398C458.498 215.952 454.895 212.347 450.448 212.347C446 212.347 442.397 215.952 442.397 220.398V257.24C442.397 257.748 442.198 258.226 441.841 258.583L433.555 266.868C427.777 272.646 427.777 282.047 433.555 287.823L440.853 295.12V338.82H353.106C348.659 338.82 345.055 342.425 345.055 346.871C345.055 351.317 348.659 354.922 353.106 354.922H440.853V360.514L435.738 374.156C434.853 376.513 434.405 378.987 434.405 381.509V457.514H172.623C168.176 457.514 164.572 461.119 164.572 465.565C164.572 470.011 168.176 473.616 172.623 473.616H441.18V525.285H108.82V473.616H138.313C142.759 473.616 146.364 470.011 146.364 465.565C146.364 461.119 142.759 457.514 138.313 457.514H114.27V380.458L119.665 375.063C122.148 372.58 123.515 369.279 123.515 365.768C123.515 362.257 122.148 358.955 119.665 356.473L112.769 349.577C112.727 349.535 112.703 349.478 112.703 349.42V326.814L127.389 312.128C131.807 307.711 134.239 301.838 134.239 295.591V265.224C134.239 258.976 131.807 253.103 127.389 248.686L117.011 238.297V214.728H155.468C159.914 214.728 163.519 211.123 163.519 206.677C163.519 202.231 159.914 198.626 155.468 198.626H117.011V186.634L121.927 181.718C127.965 175.68 127.965 165.857 121.927 159.82L119.753 157.646V92.485H432.437V152.149C432.437 154.284 433.285 156.332 434.795 157.842L441.842 164.889C442.2 165.247 442.399 165.725 442.399 166.233V186.087C442.399 190.534 446.002 194.138 450.45 194.138C454.897 194.138 458.501 190.534 458.501 186.087V166.233C458.501 161.425 456.629 156.904 453.228 153.502L448.539 148.814V95.4595C452.356 98.828 457.352 100.89 462.831 100.89H470.083C479.823 100.89 488.075 94.4225 490.786 85.559H498.529C513.543 85.559 525.794 73.5266 526.162 58.5991H541.95C546.398 58.5991 550.001 54.9944 550.001 50.5482C550.001 46.1019 546.398 42.4973 541.95 42.4973H526.162C525.792 27.5687 513.543 15.5374 498.529 15.5374H490.785C488.074 6.67382 479.822 0.206238 470.082 0.206238H462.83C455.882 0.206238 449.706 3.50819 445.742 8.61141H420.775C416.328 8.61141 412.724 12.2161 412.724 16.6623C412.724 21.1086 416.328 24.7133 420.775 24.7133H441.18V76.382H108.82V24.7144H386.465C390.913 24.7144 394.516 21.1097 394.516 16.6634C394.516 12.2172 390.913 8.61249 386.465 8.61249H104.259C100.294 3.50927 94.1176 0.207311 87.1712 0.207311H79.9189C70.1794 0.207311 61.9267 6.67382 59.2162 15.5384H51.4723C36.4568 15.5384 24.2075 27.5708 23.8393 42.4983H8.05093C3.60467 42.4983 0 46.103 0 50.5493C0 54.9955 3.60467 58.6002 8.05093 58.6002H23.8393C24.2086 73.5277 36.4578 85.5601 51.4723 85.5601H59.2151C61.9256 94.4247 70.1784 100.891 79.9179 100.891H87.1701C93.7676 100.891 99.6748 97.9166 103.649 93.2482V160.982C103.649 163.117 104.497 165.166 106.007 166.675L110.103 170.771L103.267 177.608C101.756 179.117 100.908 181.165 100.908 183.301V238.299C100.908 242.607 102.586 246.656 105.631 249.701L116.003 260.073C117.379 261.449 118.137 263.279 118.137 265.225V295.592C118.137 297.538 117.379 299.367 116.003 300.743L100.984 315.762C98.158 318.588 96.6015 322.347 96.6015 326.344V349.42C96.6015 353.781 98.2997 357.88 101.383 360.963L106.189 365.769L100.526 371.432C99.0157 372.941 98.1677 374.989 98.1677 377.124V452.143C94.9398 450.229 91.1881 449.109 87.1712 449.109H79.9189C70.1794 449.109 61.9267 455.576 59.2162 464.44H51.4723C36.4568 464.44 24.2075 476.473 23.8393 491.4H8.05093C3.60467 491.4 0 495.005 0 499.451C0 503.897 3.60467 507.502 8.05093 507.502H23.8393C24.2086 522.429 36.4578 534.462 51.4723 534.462H59.2151C61.9256 543.326 70.1784 549.793 79.9179 549.793H87.1701C94.1176 549.793 100.294 546.49 104.259 541.387H445.742C449.706 546.49 455.882 549.793 462.83 549.793H470.082C479.822 549.793 488.074 543.325 490.785 534.462H498.528C513.542 534.462 525.792 522.429 526.161 507.502H540.876C545.323 507.502 548.927 503.897 548.927 499.451C548.927 495.005 545.323 491.401 540.876 491.401V491.401ZM510.077 43.1886V57.9089C510.077 64.2766 504.897 69.4571 498.528 69.4571H491.731V31.6392H498.528C504.897 31.6392 510.077 36.8208 510.077 43.1886V43.1886ZM462.83 16.3092H470.082C473.14 16.3092 475.629 18.7975 475.629 21.8557V79.2417C475.629 82.3011 473.14 84.7883 470.082 84.7883H462.83C459.771 84.7883 457.282 82.3 457.282 79.2417V21.8557C457.282 18.7964 459.772 16.3092 462.83 16.3092V16.3092ZM39.923 57.9089V43.1886C39.923 36.8197 45.1035 31.6392 51.4723 31.6392H58.2694V69.4571H51.4723C45.1045 69.4571 39.923 64.2766 39.923 57.9089V57.9089ZM92.7178 79.2417C92.7178 82.3011 90.2295 84.7883 87.1712 84.7883H79.9189C76.8606 84.7883 74.3724 82.3 74.3724 79.2417V21.8557C74.3724 18.7975 76.8606 16.3092 79.9189 16.3092H87.1712C90.2295 16.3092 92.7178 18.7975 92.7178 21.8557V79.2417ZM39.923 506.812V492.091C39.923 485.723 45.1035 480.542 51.4723 480.542H58.2694V518.36H51.4723C45.1045 518.36 39.923 513.179 39.923 506.812ZM87.1712 533.692H79.9189C76.8606 533.692 74.3724 531.204 74.3724 528.146V470.76C74.3724 467.7 76.8606 465.213 79.9189 465.213H87.1712C90.2295 465.213 92.7178 467.701 92.7178 470.76V528.146C92.7178 531.204 90.2295 533.692 87.1712 533.692ZM475.629 528.145C475.629 531.204 473.14 533.691 470.082 533.691H462.83C459.771 533.691 457.282 531.203 457.282 528.145V470.759C457.282 467.699 459.771 465.212 462.83 465.212H470.082C473.14 465.212 475.629 467.7 475.629 470.759V528.145ZM510.077 506.812C510.077 513.179 504.897 518.36 498.528 518.36H491.731V480.542H498.528C504.897 480.542 510.077 485.723 510.077 492.091V506.812Z" fill="black"/>
<path d="M197.464 214.73C201.91 214.73 205.515 211.125 205.515 206.679C205.515 202.233 201.91 198.628 197.464 198.628H190.391C185.945 198.628 182.34 202.233 182.34 206.679C182.34 211.125 185.945 214.73 190.391 214.73H197.464Z" fill="black"/>
<path d="M289.945 266.948C285.498 266.948 281.895 270.553 281.895 274.999C281.895 279.446 285.498 283.05 289.945 283.05H348.758C353.205 283.05 356.809 279.446 356.809 274.999C356.809 270.553 353.205 266.948 348.758 266.948H289.945Z" fill="black"/>
<path d="M193.927 341.858H206.022C210.468 341.858 214.072 338.253 214.072 333.807C214.072 329.36 210.468 325.756 206.022 325.756H193.927C189.481 325.756 185.876 329.36 185.876 333.807C185.876 338.253 189.481 341.858 193.927 341.858Z" fill="black"/>
</g>
<defs>
<clipPath id="clip0">
<rect width="550" height="550" fill="white"/>
</clipPath>
</defs>
</svg>

<svg width="550" height="550" fill="none" xmlns="http://www.w3.org/2000/svg"><g clip-path="url(#a)"><path d="M471.871 77.508h26.656c10.825 0 19.601-8.775 19.601-19.6v-14.72c0-10.824-8.776-19.6-19.601-19.6h-26.656v53.92Z" fill="#FEE45A"/><path d="M450.446 166.231v91.008a9.95 9.95 0 0 1-2.909 7.042l-8.287 8.276a6.777 6.777 0 0 0 0 9.576l8.244 8.244a4.806 4.806 0 0 1 1.406 3.403v68.196l-5.624 15.007a13.053 13.053 0 0 0-.816 4.53l.665 128.686H106.221V377.123l7.75-7.75a5.099 5.099 0 0 0 0-7.203l-6.892-6.903a8.236 8.236 0 0 1-2.426-5.85v-23.069c0-1.835.73-3.596 2.029-4.895l15.018-15.017a15.323 15.323 0 0 0 4.487-10.842v-30.368c0-4.069-1.61-7.965-4.487-10.842l-10.381-10.381a8.061 8.061 0 0 1-2.361-5.7v-55.004l7.278-7.267a7.452 7.452 0 0 0 0-10.52l-4.53-4.53V42.472h329.165l-.386 109.676 7.052 7.052a9.908 9.908 0 0 1 2.909 7.031Z" fill="#FEF1DA"/><path d="M442.783 444.097h-230.93c-21.459 0-38.856-17.396-38.856-38.856V144.759c0-21.46 17.397-38.856 38.856-38.856h228.794l.223-63.43H111.705v118.509l4.53 4.53a7.452 7.452 0 0 1 0 10.52l-7.278 7.267v55.003c0 2.139.849 4.19 2.362 5.701l10.38 10.381a15.323 15.323 0 0 1 4.487 10.833v30.377c0 4.068-1.617 7.971-4.494 10.848l-15.011 15.011a6.928 6.928 0 0 0-2.029 4.899v23.065c0 2.201.87 4.304 2.426 5.85l6.892 6.903a5.099 5.099 0 0 1 0 7.203l-7.75 7.75v133.076h336.904l-.341-66.102Z" fill="#FAE2C0"/><path d="M77.364 16.663h395.814v67.77H77.364v-67.77Z" fill="#FEF1DA"/><path d="M462.83 92.84h7.252c7.51 0 13.598-6.087 13.598-13.597V21.856c0-7.51-6.088-13.598-13.598-13.598h-7.252c-7.51 0-13.598 6.088-13.598 13.598v57.386c-.001 7.51 6.088 13.598 13.598 13.598Z" fill="#C68D7A"/><path d="M78.128 77.508H51.472c-10.824 0-19.6-8.775-19.6-19.6v-14.72c0-10.824 8.776-19.6 19.6-19.6h26.656v53.92Z" fill="#FEE45A"/><path d="M87.171 92.84H79.92c-7.51 0-13.598-6.087-13.598-13.597V21.856c0-7.51 6.088-13.598 13.598-13.598h7.252c7.51 0 13.598 6.088 13.598 13.598v57.386c0 7.51-6.09 13.598-13.598 13.598Z" fill="#C68D7A"/><path d="M71.987 465.566h404.179v67.202H71.987v-67.202Z" fill="#FEF1DA"/><path d="M475.092 526.412h23.436c10.824 0 19.6-8.776 19.6-19.6v-14.721c0-10.825-8.776-19.6-19.6-19.6h-23.436v53.921Z" fill="#FEE45A"/><path d="M462.83 541.743h7.252c7.51 0 13.598-6.088 13.598-13.597V470.76c0-7.51-6.088-13.598-13.598-13.598h-7.252c-7.51 0-13.598 6.088-13.598 13.598v57.386c-.001 7.508 6.088 13.597 13.598 13.597Z" fill="#C68D7A"/><path d="M78.128 526.412H51.472c-10.824 0-19.6-8.776-19.6-19.6v-14.721c0-10.825 8.776-19.6 19.6-19.6h26.656v53.921Z" fill="#FEE45A"/><path d="M87.171 541.743H79.92c-7.51 0-13.598-6.088-13.598-13.597V470.76c0-7.51 6.088-13.598 13.598-13.598h7.252c7.51 0 13.598 6.088 13.598 13.598v57.386c0 7.508-6.09 13.597-13.598 13.597Z" fill="#C68D7A"/><path d="M540.876 491.401h-14.715c-.37-14.928-12.619-26.96-27.633-26.96h-7.743c-2.711-8.863-10.963-15.331-20.703-15.331h-7.252a21.523 21.523 0 0 0-12.322 3.871V381.51c0-.583.103-1.153.307-1.697l5.628-15.011c.338-.904.513-1.86.513-2.827v-68.2c0-3.432-1.337-6.66-3.765-9.087l-7.341-7.342 7.377-7.377a17.887 17.887 0 0 0 5.271-12.729v-36.842a8.05 8.05 0 1 0-16.101 0v36.842c0 .508-.199.986-.556 1.343l-8.286 8.285c-5.778 5.778-5.778 15.179 0 20.955l7.298 7.297v43.7h-87.747a8.05 8.05 0 1 0 0 16.102h87.747v5.592l-5.115 13.642a20.846 20.846 0 0 0-1.333 7.353v76.005H172.623a8.05 8.05 0 1 0 0 16.102H441.18v51.669H108.82v-51.669h29.493a8.052 8.052 0 0 0 0-16.102H114.27v-77.056l5.395-5.395a13.059 13.059 0 0 0 3.85-9.295c0-3.511-1.367-6.813-3.85-9.295l-6.896-6.896a.224.224 0 0 1-.066-.157v-22.606l14.686-14.686a23.23 23.23 0 0 0 6.85-16.537v-30.367a23.23 23.23 0 0 0-6.85-16.538l-10.378-10.389v-23.569h38.457a8.052 8.052 0 0 0 0-16.102h-38.457v-11.992l4.916-4.916c6.038-6.038 6.038-15.861 0-21.898l-2.174-2.174V92.485h312.684v59.664c0 2.135.848 4.183 2.358 5.693l7.047 7.047c.358.358.557.836.557 1.344v19.854a8.05 8.05 0 0 0 8.051 8.051 8.05 8.05 0 0 0 8.051-8.051v-19.854c0-4.808-1.872-9.329-5.273-12.731l-4.689-4.688V95.46c3.817 3.368 8.813 5.43 14.292 5.43h7.252c9.74 0 17.992-6.468 20.703-15.331h7.743c15.014 0 27.265-12.032 27.633-26.96h15.788a8.05 8.05 0 0 0 8.051-8.05 8.05 8.05 0 0 0-8.051-8.052h-15.788c-.37-14.928-12.619-26.96-27.633-26.96h-7.744C488.074 6.674 479.822.207 470.082.207h-7.252c-6.948 0-13.124 3.301-17.088 8.404h-24.967a8.05 8.05 0 1 0 0 16.102h20.405v51.669H108.82V24.714h277.645a8.05 8.05 0 0 0 8.051-8.05 8.05 8.05 0 0 0-8.051-8.052H104.259C100.294 3.51 94.118.207 87.171.207H79.92c-9.74 0-17.992 6.467-20.703 15.331h-7.744c-15.015 0-27.265 12.033-27.633 26.96H8.051a8.051 8.051 0 0 0 0 16.102h15.788c.37 14.928 12.619 26.96 27.633 26.96h7.743c2.71 8.865 10.963 15.331 20.703 15.331h7.252c6.598 0 12.505-2.974 16.479-7.643v67.734a8.05 8.05 0 0 0 2.358 5.693l4.096 4.096-6.836 6.837a8.044 8.044 0 0 0-2.359 5.693v54.998a16.02 16.02 0 0 0 4.723 11.402l10.372 10.372a7.239 7.239 0 0 1 2.134 5.152v30.367a7.237 7.237 0 0 1-2.134 5.151l-15.019 15.019a14.869 14.869 0 0 0-4.382 10.582v23.076c0 4.361 1.698 8.46 4.781 11.543l4.806 4.806-5.663 5.663a8.046 8.046 0 0 0-2.358 5.692v75.019a21.488 21.488 0 0 0-10.997-3.034H79.92c-9.74 0-17.992 6.467-20.703 15.331h-7.744c-15.015 0-27.265 12.033-27.633 26.96H8.051a8.051 8.051 0 0 0 0 16.102h15.788c.37 14.927 12.619 26.96 27.633 26.96h7.743c2.71 8.864 10.963 15.331 20.703 15.331h7.252c6.948 0 13.124-3.303 17.089-8.406h341.483c3.964 5.103 10.14 8.406 17.088 8.406h7.252c9.74 0 17.992-6.468 20.703-15.331h7.743c15.014 0 27.264-12.033 27.633-26.96h14.715a8.05 8.05 0 1 0 0-16.101ZM510.077 43.189v14.72c0 6.368-5.18 11.548-11.549 11.548h-6.797V31.64h6.797c6.369 0 11.549 5.182 11.549 11.55Zm-47.247-26.88h7.252a5.554 5.554 0 0 1 5.547 5.547v57.386a5.553 5.553 0 0 1-5.547 5.546h-7.252a5.554 5.554 0 0 1-5.548-5.546V21.856c0-3.06 2.49-5.547 5.548-5.547ZM39.923 57.91v-14.72c0-6.37 5.18-11.55 11.55-11.55h6.796v37.818h-6.797c-6.367 0-11.549-5.18-11.549-11.548Zm52.795 21.333a5.552 5.552 0 0 1-5.547 5.546H79.92a5.553 5.553 0 0 1-5.547-5.546V21.856a5.553 5.553 0 0 1 5.547-5.547h7.252a5.553 5.553 0 0 1 5.547 5.547v57.386Zm-52.795 427.57v-14.721c0-6.368 5.18-11.549 11.55-11.549h6.796v37.818h-6.797c-6.367 0-11.549-5.181-11.549-11.548Zm47.248 26.88H79.92a5.553 5.553 0 0 1-5.547-5.546V470.76a5.552 5.552 0 0 1 5.547-5.547h7.252a5.553 5.553 0 0 1 5.547 5.547v57.386a5.553 5.553 0 0 1-5.547 5.546Zm388.458-5.547a5.553 5.553 0 0 1-5.547 5.546h-7.252a5.553 5.553 0 0 1-5.548-5.546v-57.386a5.553 5.553 0 0 1 5.548-5.547h7.252a5.553 5.553 0 0 1 5.547 5.547v57.386Zm34.448-21.333c0 6.367-5.18 11.548-11.549 11.548h-6.797v-37.818h6.797c6.369 0 11.549 5.181 11.549 11.549v14.721Z" fill="#000"/><path d="M197.464 214.73a8.052 8.052 0 0 0 0-16.102h-7.073a8.052 8.052 0 0 0 0 16.102h7.073ZM289.945 266.948a8.05 8.05 0 0 0-8.05 8.051 8.05 8.05 0 0 0 8.05 8.051h58.813a8.05 8.05 0 1 0 0-16.102h-58.813ZM193.927 341.858h12.095a8.05 8.05 0 0 0 8.05-8.051 8.05 8.05 0 0 0-8.05-8.051h-12.095a8.05 8.05 0 1 0 0 16.102Z" fill="#000"/></g><defs><clipPath id="a"><path fill="#fff" d="M0 0h550v550H0z"/></clipPath></defs></svg>
